X:4580
T:Polska
A:Dalarna, Boda
C:e. Karis Pers
M:3/4
O:Sweden
R:Hambo
Z:Richard Robinson 
%%TUNEURL: http://www.leeds.ac.uk/music/Info/RRTuneBk/gettune/00000a3a.html
%%ID:00000a3a
K:D
A2 A>B A>G | G<F F>D F>A | \
d>c d>e d>c | c>B B<G E2 | \
e2 e>f e>d | d>c c>A c>e |
a2 a>g f>e |1 d>e f/e/f/g/ a2 :|2 d2d2z2::\
g>f e>d e>g | f>e d>c d>f |
e>d c>A B>c | d>e f>g a2 |\
g>f e>d e>g | f>e d>c d>f | e>d c>A B>c | d2d4:|
